packages/web-icons/svgs/dumbbell.svg

<svg viewBox="0 0 74 48" xmlns="http://www.w3.org/2000/svg" class="ridi_icon"><path d="M62.1 48H55c-5.3 0-9.8-7.7-11-18H18.7c-1.8 0-3.3-2.7-3.3-6s1.5-6 3.3-6h25.1C45 7.5 49.5 0 54.8 0h7.1c6.3.3 11.3 10.9 11.3 24s-5 23.7-11.1 24zm1.6-33.5c-2.7 0-5 4.2-5 9.5s2.3 9.5 5 9.5 5-4.2 5-9.5-2.3-9.5-5-9.5zm-46 0h-.5c-2.9.5-5 4.5-5 9.5s2.3 9.1 5.1 9.4h11.5c-1.6 8.3-5.5 14.1-10.1 14.4h-6.5C5.7 47.8.7 37.1.7 24 .7 10.9 5.7.2 12 0h6.5c4.6.3 8.5 6.2 10.2 14.5h-11z"/></svg>

<?xml version="1.0" encoding="UTF-8"?>
<svg width="74px" height="48px" viewBox="0 0 74 48" version="1.1" xmlns="http://www.w3.org/2000/svg">
  <!-- Generator: Sketch 41.2 (35397) - http://www.bohemiancoding.com/sketch -->
  <title>dumbbell</title>
  <desc>Created with Sketch.</desc>
  <defs></defs>
  <g id="Page-1" stroke="none" stroke-width="1" fill="none" fill-rule="evenodd">
    <g id="dumbbell" fill="#444444">
      <g id="레이어_1">
        <path d="M62.1,48 L62.1,48 L55.6,48 L55.6,48 L55,48 C49.7,48 45.2,40.3 44,30 L18.7,30 C16.9,30 15.4,27.3 15.4,24 C15.4,20.7 16.9,18 18.7,18 L43.8,18 C45,7.5 49.5,0 54.8,0 L55.4,0 L55.4,0 L61.9,0 L61.9,0 C68.2,0.3 73.2,10.9 73.2,24 C73.2,37.1 68.2,47.7 62.1,48 Z M63.7,14.5 C61,14.5 58.7,18.7 58.7,24 C58.7,29.3 61,33.5 63.7,33.5 C66.4,33.5 68.7,29.3 68.7,24 C68.7,18.7 66.4,14.5 63.7,14.5 Z M17.7,14.5 L17.5,14.5 L17.2,14.5 L17.2,14.5 C14.3,15 12.2,19 12.2,24 C12.2,29 14.5,33.1 17.3,33.4 L17.3,33.4 L17.6,33.4 L17.8,33.4 L18,33.4 L28.8,33.4 C27.2,41.7 23.3,47.5 18.7,47.8 L18.7,47.8 L12.2,47.8 L12.2,47.8 C5.7,47.8 0.7,37.1 0.7,24 C0.7,10.9 5.7,0.2 12,-3.55271368e-15 L12,-3.55271368e-15 L18.5,-3.55271368e-15 L18.5,-3.55271368e-15 C23.1,0.3 27,6.2 28.7,14.5 L18,14.5 L17.7,14.5 L17.7,14.5 Z" id="Shape"></path>
      </g>
    </g>
  </g>
</svg>
